X: 15
T: The Friendly Beasts v.1
P: piffero primo c0016
O: English 12th centurn
%R: waltz
F: http://ancients.sudburymuster.org/mus/col/pdf/carolsF.pdf
Z: 2020 John Chambers <jc:trillian.mit.edu>
M: 3/4
L: 1/8
K: G
% - - - - - - - - - -
[|\
G2G2A2 | B4B2 | A4F2 | G4G2 | d4d2 | e4ee | d4d2 | B4B2 ||\
B4A2 | c4B2 | A4G2 | B6 | d2d2c2 | B4G2 | A4F2 | G6 |]
%% - - - - - - - - - -


